flaticon/household/window-8.svg

<svg xmlns="http://www.w3.org/2000/svg" width="32" height="32" viewBox="0 0 24 24">
    <path d="M 23.1875 23.1875 L 22.371094 23.1875 L 22.371094 21.558594 L 21.558594 21.558594 L 21.558594 2.441406 L 22.371094 2.441406 L 22.371094 0.8125 L 23.1875 0.8125 C 23.410156 0.8125 23.59375 0.632812 23.59375 0.40625 C 23.59375 0.183594 23.410156 0 23.1875 0 L 0.8125 0 C 0.589844 0 0.40625 0.183594 0.40625 0.40625 C 0.40625 0.632812 0.589844 0.8125 0.8125 0.8125 L 1.628906 0.8125 L 1.628906 2.441406 L 2.441406 2.441406 L 2.441406 21.558594 L 1.628906 21.558594 L 1.628906 23.1875 L 0.8125 23.1875 C 0.589844 23.1875 0.40625 23.367188 0.40625 23.59375 C 0.40625 23.816406 0.589844 24 0.8125 24 L 23.1875 24 C 23.410156 24 23.59375 23.816406 23.59375 23.59375 C 23.59375 23.367188 23.410156 23.1875 23.1875 23.1875 Z M 2.441406 0.8125 L 21.558594 0.8125 L 21.558594 1.628906 L 2.441406 1.628906 Z M 3.253906 2.441406 L 20.746094 2.441406 L 20.746094 21.558594 L 3.253906 21.558594 Z M 2.441406 23.1875 L 2.441406 22.371094 L 21.558594 22.371094 L 21.558594 23.1875 Z M 2.441406 23.1875"/>
    <path d="M3.660156 21.152344L11.796875 21.152344 11.796875 12.203125 3.660156 12.203125zM4.472656 13.015625L10.984375 13.015625 10.984375 20.339844 4.472656 20.339844zM3.660156 11.796875L11.796875 11.796875 11.796875 2.847656 3.660156 2.847656zM4.472656 3.660156L10.984375 3.660156 10.984375 10.984375 4.472656 10.984375zM12.203125 21.152344L20.339844 21.152344 20.339844 12.203125 12.203125 12.203125zM13.015625 13.015625L19.527344 13.015625 19.527344 20.339844 13.015625 20.339844zM12.203125 11.796875L20.339844 11.796875 20.339844 2.847656 12.203125 2.847656zM13.015625 3.660156L19.527344 3.660156 19.527344 10.984375 13.015625 10.984375zM13.015625 3.660156"/>
    <path d="M5.8125 5L5 5.8125C4.839844 5.972656 4.839844 6.230469 5 6.390625 5.078125 6.46875 5.183594 6.507812 5.289062 6.507812 5.390625 6.507812 5.496094 6.46875 5.574219 6.390625L6.390625 5.574219C6.546875 5.417969 6.546875 5.160156 6.390625 5 6.230469 4.839844 5.972656 4.839844 5.8125 5zM9.882812 8.253906L9.066406 9.066406C8.910156 9.226562 8.910156 9.484375 9.066406 9.644531 9.148438 9.722656 9.25 9.761719 9.355469 9.761719 9.460938 9.761719 9.5625 9.722656 9.644531 9.644531L10.457031 8.828125C10.617188 8.671875 10.617188 8.414062 10.457031 8.253906 10.296875 8.097656 10.039062 8.097656 9.882812 8.253906zM7.320312 4.472656C7.320312 4.699219 7.140625 4.882812 6.914062 4.882812 6.691406 4.882812 6.507812 4.699219 6.507812 4.472656 6.507812 4.25 6.691406 4.066406 6.914062 4.066406 7.140625 4.066406 7.320312 4.25 7.320312 4.472656zM5.695312 4.472656C5.695312 4.699219 5.511719 4.882812 5.289062 4.882812 5.0625 4.882812 4.882812 4.699219 4.882812 4.472656 4.882812 4.25 5.0625 4.066406 5.289062 4.066406 5.511719 4.066406 5.695312 4.25 5.695312 4.472656zM8.949219 10.167969C8.949219 10.394531 8.765625 10.578125 8.542969 10.578125 8.316406 10.578125 8.136719 10.394531 8.136719 10.167969 8.136719 9.945312 8.316406 9.761719 8.542969 9.761719 8.765625 9.761719 8.949219 9.945312 8.949219 10.167969zM10.578125 10.167969C10.578125 10.394531 10.394531 10.578125 10.167969 10.578125 9.945312 10.578125 9.761719 10.394531 9.761719 10.167969 9.761719 9.945312 9.945312 9.761719 10.167969 9.761719 10.394531 9.761719 10.578125 9.945312 10.578125 10.167969zM14.355469 5L13.542969 5.8125C13.382812 5.972656 13.382812 6.230469 13.542969 6.390625 13.621094 6.46875 13.726562 6.507812 13.832031 6.507812 13.933594 6.507812 14.039062 6.46875 14.117188 6.390625L14.933594 5.574219C15.089844 5.417969 15.089844 5.160156 14.933594 5 14.773438 4.839844 14.515625 4.839844 14.355469 5zM18.425781 8.253906L17.609375 9.066406C17.453125 9.226562 17.453125 9.484375 17.609375 9.644531 17.691406 9.722656 17.792969 9.761719 17.898438 9.761719 18.003906 9.761719 18.105469 9.722656 18.1875 9.644531L19 8.828125C19.160156 8.671875 19.160156 8.414062 19 8.253906 18.839844 8.097656 18.582031 8.097656 18.425781 8.253906zM15.863281 4.472656C15.863281 4.699219 15.683594 4.882812 15.457031 4.882812 15.234375 4.882812 15.050781 4.699219 15.050781 4.472656 15.050781 4.25 15.234375 4.066406 15.457031 4.066406 15.683594 4.066406 15.863281 4.25 15.863281 4.472656zM14.238281 4.472656C14.238281 4.699219 14.054688 4.882812 13.832031 4.882812 13.605469 4.882812 13.421875 4.699219 13.421875 4.472656 13.421875 4.25 13.605469 4.066406 13.832031 4.066406 14.054688 4.066406 14.238281 4.25 14.238281 4.472656zM17.492188 10.167969C17.492188 10.394531 17.308594 10.578125 17.085938 10.578125 16.859375 10.578125 16.679688 10.394531 16.679688 10.167969 16.679688 9.945312 16.859375 9.761719 17.085938 9.761719 17.308594 9.761719 17.492188 9.945312 17.492188 10.167969zM19.117188 10.167969C19.117188 10.394531 18.9375 10.578125 18.710938 10.578125 18.488281 10.578125 18.304688 10.394531 18.304688 10.167969 18.304688 9.945312 18.488281 9.761719 18.710938 9.761719 18.9375 9.761719 19.117188 9.945312 19.117188 10.167969zM14.355469 14.355469L13.542969 15.171875C13.382812 15.328125 13.382812 15.585938 13.542969 15.746094 13.621094 15.824219 13.726562 15.863281 13.832031 15.863281 13.933594 15.863281 14.039062 15.824219 14.117188 15.746094L14.933594 14.933594C15.089844 14.773438 15.089844 14.515625 14.933594 14.355469 14.773438 14.199219 14.515625 14.199219 14.355469 14.355469zM18.425781 17.609375L17.609375 18.425781C17.453125 18.582031 17.453125 18.839844 17.609375 19 17.691406 19.078125 17.792969 19.117188 17.898438 19.117188 18.003906 19.117188 18.105469 19.078125 18.1875 19L19 18.1875C19.160156 18.027344 19.160156 17.769531 19 17.609375 18.839844 17.453125 18.582031 17.453125 18.425781 17.609375zM15.863281 13.832031C15.863281 14.054688 15.683594 14.238281 15.457031 14.238281 15.234375 14.238281 15.050781 14.054688 15.050781 13.832031 15.050781 13.605469 15.234375 13.421875 15.457031 13.421875 15.683594 13.421875 15.863281 13.605469 15.863281 13.832031zM14.238281 13.832031C14.238281 14.054688 14.054688 14.238281 13.832031 14.238281 13.605469 14.238281 13.421875 14.054688 13.421875 13.832031 13.421875 13.605469 13.605469 13.421875 13.832031 13.421875 14.054688 13.421875 14.238281 13.605469 14.238281 13.832031zM17.492188 19.527344C17.492188 19.75 17.308594 19.933594 17.085938 19.933594 16.859375 19.933594 16.679688 19.75 16.679688 19.527344 16.679688 19.300781 16.859375 19.117188 17.085938 19.117188 17.308594 19.117188 17.492188 19.300781 17.492188 19.527344zM19.117188 19.527344C19.117188 19.75 18.9375 19.933594 18.710938 19.933594 18.488281 19.933594 18.304688 19.75 18.304688 19.527344 18.304688 19.300781 18.488281 19.117188 18.710938 19.117188 18.9375 19.117188 19.117188 19.300781 19.117188 19.527344zM5.8125 14.355469L5 15.171875C4.839844 15.328125 4.839844 15.585938 5 15.746094 5.078125 15.824219 5.183594 15.863281 5.289062 15.863281 5.390625 15.863281 5.496094 15.824219 5.574219 15.746094L6.390625 14.933594C6.546875 14.773438 6.546875 14.515625 6.390625 14.355469 6.230469 14.199219 5.972656 14.199219 5.8125 14.355469zM9.882812 17.609375L9.066406 18.425781C8.910156 18.582031 8.910156 18.839844 9.066406 19 9.148438 19.078125 9.25 19.117188 9.355469 19.117188 9.460938 19.117188 9.5625 19.078125 9.644531 19L10.457031 18.1875C10.617188 18.027344 10.617188 17.769531 10.457031 17.609375 10.296875 17.453125 10.039062 17.453125 9.882812 17.609375zM7.320312 13.832031C7.320312 14.054688 7.140625 14.238281 6.914062 14.238281 6.691406 14.238281 6.507812 14.054688 6.507812 13.832031 6.507812 13.605469 6.691406 13.421875 6.914062 13.421875 7.140625 13.421875 7.320312 13.605469 7.320312 13.832031zM5.695312 13.832031C5.695312 14.054688 5.511719 14.238281 5.289062 14.238281 5.0625 14.238281 4.882812 14.054688 4.882812 13.832031 4.882812 13.605469 5.0625 13.421875 5.289062 13.421875 5.511719 13.421875 5.695312 13.605469 5.695312 13.832031zM8.949219 19.527344C8.949219 19.75 8.765625 19.933594 8.542969 19.933594 8.316406 19.933594 8.136719 19.75 8.136719 19.527344 8.136719 19.300781 8.316406 19.117188 8.542969 19.117188 8.765625 19.117188 8.949219 19.300781 8.949219 19.527344zM10.578125 19.527344C10.578125 19.75 10.394531 19.933594 10.167969 19.933594 9.945312 19.933594 9.761719 19.75 9.761719 19.527344 9.761719 19.300781 9.945312 19.117188 10.167969 19.117188 10.394531 19.117188 10.578125 19.300781 10.578125 19.527344zM10.578125 19.527344"/>
</svg>

<svg xmlns="http://www.w3.org/2000/svg" width="32" height="32" viewBox="0 0 24 24">
    <path d="M23.188 23.188h-.817v-1.63h-.812V2.442h.812V.813h.817a.406.406 0 1 0 0-.813H.813a.406.406 0 1 0 0 .813h.816V2.44h.812V21.56H1.63v1.628H.812a.406.406 0 1 0 0 .813h22.375a.406.406 0 1 0 0-.813zM2.44.813H21.56v.816H2.44zm.813 1.628h17.492V21.56H3.254zM2.44 23.188v-.817H21.56v.817zm0 0"/>
    <path d="M3.66 21.152h8.137v-8.949H3.66zm.813-8.136h6.511v7.324H4.473zm0 0M3.66 11.797h8.137v-8.95H3.66zm.813-8.137h6.511v7.324H4.473zm0 0M12.203 21.152h8.137v-8.949h-8.137zm.813-8.136h6.511v7.324h-6.511zm0 0M12.203 11.797h8.137v-8.95h-8.137zm.813-8.137h6.511v7.324h-6.511zm0 0"/>
    <path d="M5.813 5L5 5.813a.408.408 0 0 0 .574.578l.817-.817A.408.408 0 0 0 5.813 5zm0 0M9.883 8.254l-.817.812a.415.415 0 0 0 0 .579.414.414 0 0 0 .579 0l.812-.817a.403.403 0 0 0 0-.574.41.41 0 0 0-.574 0zm0 0M7.32 4.473a.407.407 0 1 1-.812 0 .406.406 0 1 1 .813 0zm0 0M5.695 4.473a.407.407 0 0 1-.813 0 .406.406 0 1 1 .813 0zm0 0M8.95 10.168a.407.407 0 0 1-.813 0 .406.406 0 1 1 .812 0zm0 0M10.578 10.168a.41.41 0 0 1-.41.41.408.408 0 1 1 .41-.41zm0 0M14.355 5l-.812.813a.408.408 0 0 0 .574.578l.817-.817A.408.408 0 0 0 14.356 5zm0 0M18.426 8.254l-.817.812a.415.415 0 0 0 0 .579.414.414 0 0 0 .578 0L19 8.828a.403.403 0 0 0 0-.574.41.41 0 0 0-.574 0zm0 0M15.863 4.473a.407.407 0 1 1-.812 0 .406.406 0 1 1 .813 0zm0 0M14.238 4.473a.41.41 0 0 1-.406.41.41.41 0 0 1-.41-.41.408.408 0 0 1 .816 0zm0 0M17.492 10.168a.407.407 0 0 1-.813 0 .406.406 0 1 1 .813 0zm0 0M19.117 10.168a.407.407 0 1 1-.812 0 .406.406 0 1 1 .813 0zm0 0M14.355 14.355l-.812.817a.403.403 0 0 0 .289.691c.102 0 .207-.039.285-.117l.817-.812a.415.415 0 0 0 0-.579.415.415 0 0 0-.579 0zm0 0M18.426 17.61l-.817.816a.41.41 0 0 0 0 .574.414.414 0 0 0 .578 0l.813-.813a.408.408 0 0 0-.574-.578zm0 0M15.863 13.832a.406.406 0 1 1-.812 0 .407.407 0 0 1 .813 0zm0 0M14.238 13.832a.408.408 0 1 1-.817-.004.408.408 0 0 1 .817.004zm0 0M17.492 19.527a.406.406 0 1 1-.813 0 .407.407 0 1 1 .813 0zm0 0M19.117 19.527a.406.406 0 1 1-.812 0 .407.407 0 0 1 .813 0zm0 0M5.813 14.355L5 15.172a.403.403 0 0 0 .29.691c.1 0 .206-.039.284-.117l.817-.812a.415.415 0 0 0 0-.579.415.415 0 0 0-.579 0zm0 0M9.883 17.61l-.817.816a.41.41 0 0 0 0 .574.414.414 0 0 0 .579 0l.812-.813a.408.408 0 0 0-.574-.578zm0 0M7.32 13.832a.406.406 0 1 1-.812 0 .407.407 0 0 1 .813 0zm0 0M5.695 13.832a.406.406 0 1 1-.813 0 .407.407 0 1 1 .813 0zm0 0M8.95 19.527a.406.406 0 1 1-.813 0 .407.407 0 1 1 .812 0zm0 0M10.578 19.527a.408.408 0 1 1-.41-.41.41.41 0 0 1 .41.41zm0 0"/>
</svg>
